X: 78
T: No_17_Song_That_Gave_Woman_the_Strength_to_Carry_the_Burden_Basket.krn
N: Derived from No_17_Song_That_Gave_Woman_the_Strength_to_Carry_the_Burden_Basket.krn
%%abc-version 2.0
%%abcx-abcm2ps-target-version 5.9.1 (29 Sep 2008)
%%abc-creator hum2abc beta
%%abcx-conversion-date 2019/03/15 08:37:56
%%humdrum-veritas 181421581
%%humdrum-veritas-data 3525891477
%%linebreak <none>
%%barnumbers 0
L: 1/8
M: 2/4
K: Bb clef=bass
D [I:setbarnb 1]| 
DC DB, | 
B,3G, ||  
[M:3/4]B,3/C/ B,G, B,F, | 
F,4G,F, | 
F,6 | 
F,2D,C, C,3/F,/ | 
F,2D,2C,2 | 
D,4-D,3/D/ ||  
[M:2/4]DC DB, ||  
[M:3/4]B,4-B,G, | 
B,3/C/ B,G, B,F, | 
F,4G,F, | 
F,6 | 
F,2D,2C,3/F,/ | 
F,2D,2C,2 | 
D,4-D,G, ||  
[M:2/4]G,F, G,F, ||  
[M:3/4]F,4G,F, ||  
[M:2/4]F,4 | 
F,2F,2 ||  
[M:3/4]F,2D,2C,2 | 
F,2D,2C,2 | 
D,6 |]  



